X: 57
T: 42 Beech Avenue
R: reel
M: 4/4
K: Gmajor
G2d2 dBd2|e2de egg/g/g|Gzd2 cBG2|EAA/A/A GFGA|
G2d2 dBd2|e2de egab|d2cB cBG2|EAA/A/A GFGA|
G2d2 dBd2|e2de egg/g/g|Gzd2 cBG2|E~A3 Fdc/B/A|
G2d2 dBd2|e2de egab|d2cB cBG2|EAA/A/A GFGA|
|:e2 dB deG2-|GDEG AGAB|e2dB deG2-|Ggge eddB|
e2 dB deG2-|GDEG AGAB|zDEG AGAB|Bggd egab:|

